X: 99
T: The KEEL ROW
%R: reel
B: Jean White "100 Popular Hornpipes, Reels, Jigs and Country Dances", Boston 1880 p.40
F: http://www.loc.gov/resource/sm1880.09124.0#seq-1
Z: 2014 John Chambers <jc:trillian.mit.edu>
M: 2/4
L: 1/16
K: G
% - - - - - - - - - - - - - - - - - - - - - - - - - - - - -
dc |\
B2GB c2Ac | B2GB AFDc |\
B2GB c2Ac | BGAF Gedc |
B2GB c2Ac | B2GB AFDc |\
B2GB c2Ac | BGAF G2 :|
|: dc |\
Bddg e2dc | B2GB AFDc |\
Bddg e2dc | BGAF GBdc |
Bddg e2dc | B2GB AFDc |\
Bddg fedc | BGAF G2 H:|
% - - - - - - - - - - - - - - - - - - - - - - - - - - - - -

%%sep 1 1 500
%%sep 1 1 500
